assets/icons/uE010-flag.svg

<svg xmlns="http://www.w3.org/2000/svg" width="896" height="1232" viewBox="0 0 896 1232"><path d="M56 56h199q49 0 103 11.5T444.5 90t85.5 32q128 48 182 48 47 0 95-23 9-5 24-7h3q24 0 43 16.5t19 39.5q0 12-4 20-43 134-180 198 92 103 137 113 36 8 43 45 6 37-25 57-7 4-17 9l-3 1q-1 0-3 1-64 29-129 29-37 0-80.5-10T567 640t-75-29q-50-20-77-29.5t-73-20-86-10.5q-27 0-60 5v340q0 23-16.5 39.5T140 952H56q-23 0-39.5-16.5T0 896V112q0-23 16.5-39.5T56 56zm84 840V112H56v784h84zm681-307q1-1 7.5-3t8.5-4q-22-5-42.5-16.5T746 528t-40-37.5-48.5-53.5-42.5-48q7-1 18.5-3.5t43-16 58-32.5 55.5-56.5 44-84.5q-57 30-122 30-59 0-136-28.5t-161-57T255 112q-42 0-87 9v383q46-9 88-9 61 0 128 18.5T499.5 554t108 40.5T715 613q54 0 106-24z"/></svg>

<?xml version="1.0" encoding="UTF-8" standalone="no"?><svg   xmlns:svg="http://www.w3.org/2000/svg"   xmlns="http://www.w3.org/2000/svg"   version="1.1"   width="896"   height="1232"   viewBox="0 0 896 1232">  <path     d="M56 56H255Q304 56 358 67.5T444.5 90T530 122Q658 170 712 170Q759 170 807 147Q816 142 831 140V140H834Q858 140 877 156.5T896 196Q896 208 892 216Q849 350 712 414Q804 517 849 527Q885 535 892 572Q898 609 867 629Q860 633 850 638L847 639Q846 639 844 640Q780 669 715 669Q678 669 634.5 659T567 640T492 611Q442 591 415 581.5T342 561.5T256 551Q229 551 196 556V896Q196 919 179.5 935.5T140 952H56Q33 952 16.5 935.5T0 896V112Q0 89 16.5 72.5T56 56zM140 896V112H56V896H140zM821 589Q822 588 828.5 586T837 582Q815 577 794.5 565.5T746 528T706 490.5T657.5 437T615 389Q622 388 633.5 385.5T676.5 369.5T734.5 337T790 280.5T834 196Q777 226 712 226Q653 226 576 197.5T415 140.5T255 112Q213 112 168 121V504Q214 495 256 495Q317 495 384 513.5T499.5 554T607.5 594.5T715 613Q769 613 821 589z"     id="icon51" /></svg>
